Final project/assets/images/linkedin-profile-team.svg

<svg width="20" height="20" viewBox="0 0 20 20" fill="none" xmlns="http://www.w3.org/2000/svg">
<g clip-path="url(#clip0_1_526)">
<path d="M18.5195 -0.00488281H1.47656C0.660156 -0.00488281 0 0.639648 0 1.43652V18.5498C0 19.3467 0.660156 19.9951 1.47656 19.9951H18.5195C19.3359 19.9951 20 19.3467 20 18.5537V1.43652C20 0.639648 19.3359 -0.00488281 18.5195 -0.00488281ZM5.93359 17.0381H2.96484V7.49121H5.93359V17.0381ZM4.44922 6.19043C3.49609 6.19043 2.72656 5.4209 2.72656 4.47168C2.72656 3.52246 3.49609 2.75293 4.44922 2.75293C5.39844 2.75293 6.16797 3.52246 6.16797 4.47168C6.16797 5.41699 5.39844 6.19043 4.44922 6.19043ZM17.043 17.0381H14.0781V12.3975C14.0781 11.292 14.0586 9.86621 12.5352 9.86621C10.9922 9.86621 10.7578 11.0732 10.7578 12.3193V17.0381H7.79688V7.49121H10.6406V8.7959H10.6797C11.0742 8.0459 12.043 7.25293 13.4844 7.25293C16.4883 7.25293 17.043 9.22949 17.043 11.7998V17.0381Z" fill="#1D2130"/>
</g>
<defs>
<clipPath id="clip0_1_526">
<rect width="20" height="20" fill="white" transform="translate(0 -0.00488281)"/>
</clipPath>
</defs>
</svg>

<svg width="20" height="20" fill="none" xmlns="http://www.w3.org/2000/svg"><g clip-path="url(#a)"><path d="M18.52-.005H1.477C.66-.005 0 .64 0 1.437V18.55c0 .797.66 1.445 1.477 1.445H18.52c.816 0 1.48-.648 1.48-1.441V1.437c0-.797-.664-1.442-1.48-1.442ZM5.934 17.038h-2.97V7.491h2.97v9.547ZM4.449 6.19a1.72 1.72 0 1 1-.006-3.439 1.72 1.72 0 0 1 .006 3.44Zm12.594 10.848h-2.965v-4.64c0-1.106-.02-2.532-1.543-2.532-1.543 0-1.777 1.207-1.777 2.453v4.72H7.797V7.49h2.844v1.305h.039c.394-.75 1.363-1.543 2.804-1.543 3.004 0 3.559 1.976 3.559 4.547v5.238Z" fill="#1D2130"/></g><defs><clipPath id="a"><path fill="#fff" transform="translate(0 -.005)" d="M0 0h20v20H0z"/></clipPath></defs></svg>
